!!!OTL: Symphony No. 5 in E minor, Movement 2
!!!COM: Tchaikovsky
!!!OMD: Andante cantibile, con alcuna licenza
**kern	**dynam
*staff1	*staff1
*Ivioln	*Ivioln
*I"Violin 1	*I"Violin 1
*clefG2	*clefG2
*k[f#c#]	*k[f#c#]
*M12/8	*M12/8
*tb288	*
*	*
=1-	=1-
1.r	.
=2	=2
1.r	.
=3	=3
1.r	.
=4	=4
1.r	.
=5	=5
1.r	.
=6	=6
1.r	.
=7	=7
1.r	.
=8	=8
1.r	.
=9	=9
1.r	.
=10	=10
2.r	.
2.d/	pp
=11	=11
(2.d/	<
4.d/	[
4.c#/)	.
=12	=12
2.d/	> ]
2.r	.
=13	=13
!!LO:TX:i:Z=10:t=animando
1.r	.
=14	=14
2.r	.
2.d/	pp
=15	=15
!!LO:TX:i:Z=10:t=riten.
2.f#/	<
4.f#/	[
4.e#/	.
=16	=16
!!LO:REH:t=A
!!LO:TX:i:Z=10:t=sostenuto
[1.f#	> ]
=17	=17
4.f#/]	.
4r	.
8r	.
4r	.
8r	.
[4.e/	pp
=18	=18
4.e/]	.
4r	.
8r	.
4r	.
8r	.
4.d/	.
=19	=19
!!LO:TX:Z=10:i:t=animando
4.d/	<
4.d/	(
4.d/	(
4.c#/	[
=20	=20
!!LO:TX:Z=10:i:t=sostenuto
4.d/	.
4r	.
8r	.
4r	.
8r	.
4.cn/	pp
=21	=21
4.B/	.
4r	.
8r	.
4r	.
8r	.
[4.e/	.
=22	=22
4.e/]	.
4r	.
8r	.
4r	.
8r	.
4.d/	.
=23	=23
4.d/	< [
4.d/	.
4.d/	>
4.c#/	]
=24	=24
!!LO:TX:Z=10:b:t=Con moto
(8f#'/ 8a#'/L	pp
8f#'/ 8a#'/	.
8f#'/ 8a#'/J	.
8f#'/ 8a#'/L	.
8f#'/ 8a#'/	.
8f#'/) 8a#'/J	.
(8e#'/ 8b'/L	.
8e#'/ 8b'/	.
8e#'/ 8b'/J	.
8g#'/ 8b'/L	.
8g#'/ 8b'/	.
8g#'/) 8b'/J	.
=25	=25
(8f#'/ 8a#'/L	.
8f#'/ 8a#'/	.
8f#'/ 8a#'/J	.
8f#'/ 8a#'/L	.
8f#'/ 8a#'/	.
8f#'/) 8a#'/J	.
!!LO:TX:Z=10:i:t=animato
(8e#'/ 8b'/L	.
8e#'/ 8b'/	.
8e#'/ 8b'/J	.
8g#'/ 8b'/L	.
8g#'/ 8b'/	.
8g#'/) 8b'/J	.
=26	=26
(8f#'/ 8cc#'/L	<
8f#'/ 8cc#'/	(
8f#'/ 8cc#'/J	(
8f#'/ 8cc#'/L	(
8f#'/ 8cc#'/	(
8f#'/) 8cc#'/J	(
8b'\ (8ff#'\L	(
8b'\ 8ff#'\	(
8b'\ 8ff#'\J	(
8b'\ 8ff#'\L	(
8b'\ 8ff#'\	(
8b'\ 8ff#'\J)	[
=27	=27
8b'\ (8ff#'\L	mp
8b'\ 8ff#'\	.
8b'\ 8ff#'\J	.
8cc#'\L	.
8cc#'\	.
8cc#'\J)	.
(8d'/ 8dd'/L	.
8d'/ 8dd'/	.
8d'/ 8dd'/J	.
8d'/ 8dd'/L	.
8d'/ 8dd'/	.
8d'/) 8dd'/J	.
=28	=28
!!LO:TX:i:Z=10:t=sostenuto
(8d'/ 8dd'/L	>
8d'/ 8dd'/	)
8d'/) 8dd'/J	)
(8cc#'\L	)
8cc#'\	)
8cc#'\J)	]
2.r	.
=29	=29
(8g#'/L	p
8g#'/	.
8g#'/J	.
8f#'/L	.
8f#'/	.
8f#'/J)	.
2.r	.
=30	=30
1.r	.
=31	=31
1.r	.
=32	=32
1.r	.
=33	=33
!!LO:TX:b:Z=10:t=Tempo I
1.r	.
=34	=34
1.r	.
=35	=35
!!LO:TX:i:Z=10:t=animando
1.r	.
=36	=36
!	!
1.r	.
!!LO:TX:i:Z=10:t=riten.
=37	=37
!!LO:TX:i:Z=10:t=sostenuto
8r	.
(8b/L	p
[8a/J	<
8a/L]	(
8a/	(
[8g/J	(
8g/L])	(
(8f#/	(
[8e/J	(
8e/L]	(
8d/	(
[8c#/J	[
=38	=38
8c#/L])	mf
(8B/	.
[8A/J	.
8A/L]	.
8B/	.
8d/J)	.
[4.f#/	.
8f#/]	.
8r	.
8r	.
=39	=39
!!LO:TX:Z=10:b:t=Poco pi&ugrave; animato
4.G#/ 4.f#/	f
4.G#/ 4.f#/	.
4.G#/ 4.f#/	.
4r	.
8r	.
=40	=40
4.G#/ 4.f#/	.
4.G#/ 4.f#/	.
4.G#/ 4.f#/	.
4r	.
8r	.
=41	=41
4.B/ 4.d/	ff
4.B/ 4.d/	.
4.B/ 4.g#/	.
4r	.
8r	.
=42	=42
4.B/ 4.d/	.
4.B/ 4.d/	.
2.B/ 2.g#/	.
=43	=43
!!LO:TX:Z=10:i:t=riten.
2.B/ 2.gn/	.
2.A/ 2.g/	.
=44	=44
!!LO:TX:Z=10:b:t=Tempo I
1.r	.
=45	=45
!!LO:REH:t=B
!!LO:TX:i:Z=10:t=con noblezza
4.dd\	p
(4f#/	<
8b\)	(
4.a/	(
4a/	[
(8a/	mp
=46	=46
!!LO:TX:i:Z=10:t=animando
!!LO:TX:i:Y=20:t=cresc.
8.b\L	.
8.cc#\J	.
8.dd\L	.
8.b\J	.
[4.ff#\)	.
8ff#\]	.
8r	.
8r	.
=47	=47
(8.b\L	.
8.cc#\J	.
8.dd\L	.
8.b\J)	.
4.ff#\	f
(8.ee~\L	.
8.dd~\J)	.
=48	=48
!!LO:TX:i:Z=10:t=riten.
4.dd\	>
(8.cc#~\L	)
8.b~\J)	)
(8e/L	)
8g/	)
8b/J)	)
(4b\	)
8a/)	]
=49	=49
4.dd\	p
(4f#/	.
8b\)	.
[4.a/	.
4a/]	.
(8a/	.
=50	=50
!!LO:TX:i:Z=10:t=animando
8.b\L	.
8.cc#\J	.
8.dd\L	.
8.b\J	.
[4.ff#\)	.
8ff#\]	.
8r	.
(8f#/	mf
=51	=51
8.b~\L	.
8.cc#~\J)	.
(8.dd~\L	.
8.b~\J)	.
4.ff#\	.
4ff#\	.
8ff#\	.
=52	=52
!!LO:REH:t=C
!!LO:TX:b:Z=10:t=Poco pi&ugrave; mosso
!	!
(4.ff#\	.
4gg\)	.
8gg\	.
*	*
(4.gg\	.
4gg#\)	.
8gg#\	.
=53	=53
(8.gg#\L	.
8.aa\J)	.
8.aa~\L	.
8.aa~\J	.
(8.aa\L	.
8.aa#\J)	.
8.aa#~\L	.
8.aa#~\J	.
=54	=54
(4.aa#\	.
4bb\)	.
8bb\	.
*	*
(4.bb\	.
4cccn\)	.
8ccc\	.
=55	=55
(8.cccn\L	.
8.ccc#\J)	.
8.ccc#~\L	.
8.ccc#~\J	.
(8.ccc#\L	.
8.ddd\J)	.
8.ddd~\L	.
8.ddd~\J	.
=56	=56
!!LO:TX:b:Z=10:t=Tempo I
4.ddd\	fff
(4ff#\	.
8bb\)	.
*	*
2.a\ 2.aa\	> ]
=57	=57
!!LO:TX:Z=10:i:t=animando
4.bb\	ff
(4dd\	>
8gg\)	)
2.ff#\	]
=58	=58
4.gg\	f
(4b\	.
8cc#\)	.
[2.d/ [2.dd/	>
!!LO:TX:Z=10:i:t=riten.
=59	=59
!!LO:TX:Z=10:b:t=Pi&ugrave; animato
4.d/] 4.dd/]	]
(4a/	p <
8b\)	[
([4.dd\	>
4dd\]	)
8cc#\)	]
=60	=60
!!LO:TX:Z=10:i:t=riten.
4.dd\	.
(4a/	<
8b\)	[
([4.dd\	>
4dd\]	)
8cc#\)	]
=61	=61
!!LO:TX:Z=10:b:t=Poco meno
(4.ee^\	p
[4.dd\	.
8dd\])	.
8r	.
8r	.
(4dd\	.
8cc#\)	.
=62	=62
(4.ee^\	.
[4.dd\	.
8dd\])	.
8r	.
8r	.
(4dd\	.
8cc#\)	.
*	*
=63	=63
4.ee\	<
(4dd\	(
8cc#\)	(
4.cc#\	(
(4b\	(
8a/)	[
=64	=64
4.a/	mf > ]
2.g#/	< [
(4b\	mf
8a/)	.
=65	=65
4.a^/	>
2.g#/	]
(4b\	p
8a/)	.
=66||	=66||
*M4/4	*M4/4
*met(c)	*met(c)
!!LO:TX:Z=10:b:t=Moderato con anima
(2a/	p
[2g#/	.
=67	=67
2g#/])	.
[2f#/ [2a/	.
=68	=68
2f#/] 2a/]	.
2c#/ 2g#/	.
=69	=69
2d/ 2b/	.
2c#/ 2g#/	.
=70	=70
2d/ 2b/	.
2c#/ 2g#/	.
*	*
=71	=71
8c#/L	p
[8c#/J	.
8c#/L]	.
[8c#/J	.
8c#/L]	.
[8c#/J	.
8c#/L]	.
(8c#/J	.
=72	=72
8A/L)	.
[8A/J	.
8A/L]	.
(8A/J	.
8B/L)	.
[8B/	.
8B/]	.
[8B/J	.
*	*
=73	=73
8B/L]	.
[8B/	.
8B/]	.
[8B/J	.
8B/L]	.
[8B/	.
8B/]	.
[8B/J	.
=74	=74
8B/L]	.
[8B/	.
8B/]	.
[8B/J	.
8B/L]	.
[8B/	.
8B/]	.
8B'/J	.
=75	=75
!!LO:REH:t=D
1r	.
=76	=76
1r	.
=77	=77
4.ff#\	mf
(8gg#\	<
8bb\L	(
8aa\)	[
8gg#~\	>
8ff#~\J	]
=78	=78
(8.gg#^\L	.
16dd#\Jk)	.
(8dd#\L	.
8cc#\J)	.
(4cc#^\	.
4b#\)	.
=79	=79
1r	.
=80	=80
1r	.
=81	=81
4.gg#\	mf
(8aa#\	<
8ccc#\L	[
8bb\)	>
8aa#~\	)
8gg#~\J	)
=82	=82
(8.bb-^\L	)
16ffn\Jk)	]
(8ff\L	.
8ee-\J)	.
(4ee-^\	.
4dd\)	.
*	*
=83	=83
!!LO:REH:t=E
1r	.
=84	=84
2r	.
(4d/ (4dd/	mf
4fn/) 4b-/)	.
=85	=85
2A-/ 2e-/	.
2A-/ 2fn/	.
=86	=86
2A-/ 2e-/	.
2A-/ 2d/	.
*	*
=87	=87
4.b-\	mf
(8cc-\	<
8ee-\L	(
8dd-\)	[
8cc-~\	>
8b-~\J	]
=88	=88
(2a-^/	.
2g/)	.
=89	=89
4.dd#\	f
(8ee\	<
8gg#\L	(
8ff#\)	[
8ee~\	>
8dd#~\J	]
=90	=90
(2cc#^\	.
2b#\)	.
=91	=91
!!LO:REH:t=F
(16G#/LL	p
16A#/	.
16G#/	.
16A#/JJ	.
16Bn/LL	.
16B#/	.
16Bn/	.
16B#/JJ)	.
(16B#/LL	.
16c#/	.
16B#/	.
16c#/JJ	.
16d#/LL	.
16e/	.
16d#/	.
16e/JJ)	.
=92	=92
(16e/LL	<
16e#/	(
16en/	(
16e#/JJ	(
16e#/LL	(
16f#/	(
16e#/	(
16f#/JJ)	(
(16g#/LL	(
16a#/	(
16g#/	(
16a#/JJ	(
16bn\LL	(
16b#\	(
16bn\	(
16b#\JJ)	[
=93	=93
(16cc#\LL	mf
16dd#\	.
16cc#\	.
16dd#\JJ	.
8cc#\)	.
8r	.
(16gg#\LL	.
16aa#\	.
16gg#\	.
16aa#\JJ	.
8gg#\)	.
8r	.
=94	=94
(16cc#\LL	.
16dd#\	.
16cc#\	.
16dd#\JJ	.
8cc#\)	.
8r	.
(16gg#\LL	.
16aa#\	.
16gg#\	.
16aa#\JJ	.
8gg#\)	.
8r	.
=95	=95
4.g#/	f
!	!
8dd#\	.
24ff#\LL	.
24ff#\	.
24ff#\J	.
24ee\L	.
24ee\	.
24ee\JJ	.
24dd#\LL	.
24dd#\	.
24dd#\J	.
24cc#\L	.
24cc#\	.
24cc#\JJ	.
=96	=96
!!LO:TX:i:Z=10:t=stringendo
*rscale:3/2	*
8bb\L	.
8aa\	.
8gg#\	.
8ff#\J	.
8eee\L	.
8ddd#\	.
8ccc#\	.
8bb#\J	.
=97	=97
8aaa\L	fff
8ggg#\	.
8fff#\	.
8eee\J	.
8ddd#\L	.
8ccc#\	.
8bbn\	.
8aa\J	.
=98	=98
8gg#\L	.
8ff#\	.
8ee\	.
8dd#\J	.
8cc#/L	.
8b/	.
8a/	.
8g#/J	.
*rscale:1	*
=99	=99
!!LO:TX:b:Z=10:t=Tempo precedente
[4a/	.
8a/]	.
8r	.
2r	.
=100	=100
8c#^/ 8e^/ 8a^/L	fff
8c#^/ 8e^/ 8a^/J	.
4r	.
2r	.
=101	=101
1r	.
=102	=102
8c#^/ 8e^/ 8a^/L	.
8c#^/ 8e^/ 8a^/J	.
4r	.
4r	.
4e/ 4dd/	.
=103	=103
4e/ 4cc#/	.
4G/ 4e/ 4b/	.
4A/ 4e/ 4a/	.
4B/ 4g/	.
=104	=104
8A^/ 8e^/ 8a^/L	.
8A^/ 8e^/ 8a^/J	.
4r	.
4r	.
4e/ 4dd/	.
=105	=105
4e/ 4cc#/	.
4G/ 4e/ 4b/	.
4A/ 4e/ 4a/	.
4B/ 4g/	.
=106	=106
8A^/ 8e^/ 8a^/L	.
8A^/ 8e^/ 8a^/J	.
4r	.
4r	.
8A^/ 8e^/ 8a^/	.
8r	.
=107	=107
4r	.
8A^/ 8e^/ 8a^/	.
8r	.
4r	.
8A^/ 8e^/ 8a^/	.
8r;	.
=108||	=108||
*M12/8	*M12/8
*rscale:3/2	*
!!LO:TX:b:Z=10:t=Tempo I
1r	.
=109	=109
1r	.
=110	=110
1r	.
=111	=111
2r	.
6r	.
12r	.
(12d/L	mf
12c#/	.
12B~/J)	.
=112	=112
(4d^/	.
2c#/)	.
(12A/L	<
12B/	(
12c#~/J)	[
=113	=113
(4e/	.
2d/)	>
(12d/L	]
12e/	.
12f#~/J)	.
=114	=114
4g/	<
6g/	(
12g/	(
[4g/	(
6g/]	(
12g/	[
=115	=115
(4g/	>
2f#/)	]
(12d/L	mf
12c#/	.
12B~/J)	.
=116	=116
!!LO:REH:t=G
!!LO:TX:i:Z=10:t=animando
(4d^/	.
2c#/)	.
(12A/L	<
12B/	(
12c#~/J)	[
=117	=117
(4e/	>
2d/)	]
(12d~/L	<
12e~/	(
12f#~/J)	[
=118	=118
4g#/	f
6g#/	.
12g#/	<
[4g#/	(
6g#/]	(
12g#/	[
!!LO:TX:Z=10:i:t=riten.
*rscale:1	*
=119	=119
*	*
!!LO:TZ:Z=10:i:t=sostenuto
(8g#/L	f
8b/	.
8a/J)	.
2.a/	> ]
*	*
(8f#~/L	mf
8gn~/	.
8a~/J)	.
=120	=120
*rscale:3/2	*
*	*
(4a/	>
2B/)	]
(12e~/L	<
12f#~/	(
12g~/J)	[
=121	=121
(4g/	>
2A/)	]
(12d~/L	<
12e~/	(
12f#~/J)	[
=122	=122
!!LO:TX:i:Z=10:t=animando
4f#/	f
6f#/	<
12f#/	(
([4f#/	(
6f#/]	(
12e/)	[
=123	=123
!!LO:TX:i:Z=10:t=sostenuto
(6b\	ff
[12a/	>
12a/L])	]
(12A~/	mf
12B~/J)	.
(12c#/L	.
12d/)	.
12e~/J	.
(12f#~/L	<
12g~/	(
12a~/J)	[
=124	=124
!!LO:REH:t=H
(4a/	>
2B/)	]
(12e~/L	<
12f#~/	(
12g~/J)	[
=125	=125
(4g/	>
2A/)	]
(12d~/L	<
12e~/	(
12f#~/J)	[
*	*
*	*
=126	=126
!!LO:TX:i:Z=20:t=animando
*	*
*	*
4f#/	f
6f#/	.
!	!
12f#/	.
([4f#/	.
6f#/]	.
12e/)	.
=127	=127
4b\	ff
6b\	.
12b\	.
(6b\	>
!!LO:TX:i:Z=10:t=riten.
[12a/	)
!	!
16a/LL])	]
(16a/	mf
16b/	.
!	!
[16a/JJ	.
*rscale:1	*
=128	=128
!!LO:TX:Z=20:b:t=Pi&ugrave; mosso
*M4/4	*M4/4
*met(c)	*met(c)
*rscale:2/3	*
32%3a/LL])	.
(32%3a/	.
32%3b/	.
[32%3a/JJ	.
32%3a/LL])	.
(32%3a/	.
32%3b/	.
[32%3a/JJ	.
32%3a/LL])	.
(32%3a/	.
32%3b/	.
[32%3a/JJ	.
32%3a/LL])	.
(32%3a/	.
32%3b/	.
[32%3a/JJ	.
=129	=129
32%3a/LL])	.
(32%3a/	.
32%3b/	.
[32%3a/JJ	.
32%3a/LL])	.
(32%3a/	.
32%3b/	.
[32%3a/JJ	.
32%3a/LL])	.
(32%3a/	.
32%3b/	.
[32%3a/JJ	.
32%3a/LL])	.
(32%3a/	.
32%3b/	.
32%3a/JJ	.
=130	=130
32%3dd\LL)	.
(32%3dd\	.
32%3ee\	.
[32%3dd\JJ	.
32%3dd\LL])	.
(32%3dd\	.
32%3ee\	.
32%3dd\JJ	.
32%3cc#\LL	.
(32%3cc#\)	.
32%3dd\	.
[32%3cc#\JJ	.
32%3cc#\LL])	.
(32%3cc#\	.
32%3dd\	.
32%3cc#\JJ	.
=131	=131
32%3dd\LL)	.
(32%3dd\	f
32%3ee\	.
[32%3dd\JJ	.
32%3dd\LL])	.
(32%3dd\	.
32%3ee\	.
[32%3dd\JJ	.
32%3dd\LL])	>
(32%3dd\	)
32%3ee\	)
[32%3dd\JJ	)
32%3dd\LL])	)
(32%3dd\	)
32%3ee\	)
32%3dd\JJ	)
=132	=132
32%3a/LL)	]
(32%3a/	mf
32%3b/	.
[32%3a/JJ	.
32%3a/LL])	.
(32%3a/	.
32%3b/	.
[32%3a/JJ	.
32%3a/LL])	.
(32%3a/	.
32%3b/	.
32%3a/JJ	.
32%3a/LL)	.
(32%3a/	.
32%3b/	.
[32%3a/JJ	.
=133	=133
32%3a/LL])	<
(32%3a/	(
32%3b/	(
[32%3a/JJ	(
32%3a/LL])	(
(32%3a/	(
32%3b/	(
[32%3a/JJ	(
32%3a/LL])	(
(32%3a/	(
32%3b/	(
[32%3a/JJ	(
32%3a/LL])	(
(32%3a/	(
32%3b/	(
32%3a/JJ	[
=134	=134
32%3dd\LL)	f
(32%3dd\	.
32%3ee\	.
32%3dd\JJ	.
32%3cc#\LL)	.
(32%3cc#\	.
32%3dd\	.
32%3cc#\JJ	.
32%3b\LL)	.
(32%3b\	.
32%3cc#\	.
32%3b\JJ)	.
!	!
4.r	.
!	!
=135	=135
32%3dd'\LL	.
(32%3dd\	.
32%3ee\	.
32%3dd\JJ	.
32%3cc#\LL)	.
(32%3cc#\	.
32%3dd\	.
32%3cc#\JJ	.
32%3b\LL)	.
(32%3b\	.
32%3cc#\	.
32%3b\JJ)	.
4.r	.
*	*
=136	=136
32%3gg#'\LL	ff
(32%3gg#\	.
32%3aa\	.
32%3gg#\JJ	.
32%3ff#\LL)	.
(32%3ff#\	.
32%3gg#\	.
32%3ff#\JJ	.
32%3ee#\LL)	.
(32%3ee#\	.
32%3ff#\	.
32%3ee#\JJ)	.
4.r	.
!	!
=137	=137
32%3gg#'\LL	.
(32%3gg#\	.
32%3aa\	.
32%3gg#\JJ	.
32%3ff#\LL)	.
(32%3ff#\	.
32%3gg#\	.
32%3ff#\JJ	.
32%3ee#\LL)	.
(32%3ee#\	.
32%3ff#\	.
32%3ee#\JJ)	.
4.r	.
*rscale:1	*
=138	=138
!!LO:REH:t=I
*M12/8	*M12/8
[4.f#\ [4.ff#\	.
8f#\] 8ff#\]	.
8r	.
8r	.
[4.gn\ [4.ggn\	.
8g\] 8gg\]	.
8r	.
8r	.
=139	=139
[4.g#\ [4.gg#\	.
8g#\] 8gg#\]	.
8r	.
8r	.
[4.gn\ [4.ggn\	.
8g\] 8gg\]	.
8r	.
8r	.
!!LO:TX:b:Z=10:t=Un poco pi&ugrave; animato
=140	=140
2.r	.
8r	.
8d#/L	ff
8e/J	.
8g/L	.
8g#/	.
8a/J	.
=141	=141
8a#\L	.
8b\	.
8cc#\J	.
8dd\L	.
8dd#\	.
8ee\J	.
8ff#\L	.
8gg\	.
8aan\J	.
8aa#\L	.
8bb\	.
8ccc#\J	.
=142	=142
!!LO:TX:b:Z=10:t=Andante mosso
*rscale:3/2	*
4ddd\	.
(6ff#\	.
12bb\)	.
(4aa\	.
6aa\)	.
12aa\	.
=143	=143
8bb\L	.
8ccc\J	.
8ddd\L	.
8bbJ\	.
[4fff#\	.
12fff#\]	.
12r	.
12r	.
=144	=144
!!LO:TX:i:Z=10:t=animando
8bb\L	.
8ccc#\J	.
8ddd\L	.
8bb\J	.
4fff#\	.
(8eee\L	.
8ddd\J)	.
=145	=145
4ddd\	.
(8ccc#\L	.
8bb\J)	.
!!LO:TX:i:Z=10:t=riten.
(12ee\L	.
12gg\)	.
12bb~\J	.
(6bb\	.
12aa\)	.
=146	=146
!!LO:TX:i:Y=20:t=con desiderio e passione
4ddd\	.
(6ff#\	.
12bb\)	.
[4aa\	.
6aa\]	.
12aa\	.
=147	=147
8bb\L	.
8ccc#\J	.
8ddd\L	.
8bb\J	.
[4fff#\	.
12fff#\]	.
12r	.
12r	.
=148	=148
8bb\L	.
8ccc#\J	.
8ddd\L	.
8bb\J	.
4fff#\	.
6fff#\	.
12fff#\	.
*rscale:1	*
=149	=149
!!LO:TX:i:Y=20:t=con tutta forza
(4.fff#\	.
4ggg\)	.
8ggg\	.
(4.ggg\	.
4ggg#\)	.
8ggg#\	.
=150	=150
(8.ggg#\L	.
8.aaa\J)	.
8.aaa\L	.
8.aaa\J	.
(8.aaa\L	.
8.aaa#\J)	.
8.aaa#\L	.
8.aaa#\J	.
=151	=151
!!LO:REH:t=K
(4.aaa#\	.
4bbb\)	.
8bbb\	.
(4.bbb\	.
4ccccn\)	.
8cccc\	.
=152	=152
(8.ccccn\L	.
8.cccc#\J)	.
8.cccc#\L	.
8.cccc#\J	.
(8.cccc#\L	.
8.dddd\J)	.
8.dddd\L	.
8.dddd\J	.
=153	=153
*M4/4	*M4/4
*met(c)	*met(c)
4dddd\	ffff
(8fff#\L	.
8bbb\J)	.
2aaa\	> ]
=154	=154
4bbb\	ff
(8ddd\L	.
8ggg\J)	.
2fff#\	> ]
=155	=155
*M12/8	*M12/8
*rscale:3/2	*
4ggg\	f
(6bb\	.
12ccc#\)	.
[2ddd\	>
!	!
=156	=156
4ddd\]	]
(6a/	mf <
12b\)	[
([4dd\	>
6dd\]	)
12cc#\)	]
=157	=157
4dd\	p
(6a/	<
12b\)	[
!!LO:TX:i:Z=10:t=riten.
([4dd\	>
6dd\]	)
12cc#\)	]
*rscale:1	*
=158||	=158||
*M4/4	*M4/4
*met(c)	*met(c)
!!LO:TX:b:Z=10:t=Allegro con troppo
(8ee\L	fff
8dd\J)	.
4r	.
2r	.
=159	=159
1r	.
=160	=160
1r	.
=161	=161
1r	.
=162	=162
8B/L	.
8fn/	.
8b/	.
8dd/J	.
8f\L	.
8b\	.
8ffn\	.
8bb\J	.
=163	=163
8b\L	.
8ffn\	.
8bb\	.
8ddd\J	.
8ff\L	.
8bb\	.
8ddd\	.
8fffn\J	.
=164	=164
12ee\ 12eee\L	fff
12ee\ 12eee\	.
12ee\ 12eee\J	.
12ee\ 12eee\L	.
12ee\ 12eee\	.
12ee\ 12eee\J	.
8ee^\ 8eee^\L	.
8ee^\ 8eee^\J	.
8ee^\ 8eee^\L	.
8ee^\ 8eee^\J	.
=165	=165
8dd^\ 8ee^\L	.
8dd^\ 8ee^\J	.
4r	.
2r	.
=166	=166
1r	.
=167	=167
1r	.
*	*
*	*
*	*
=168	=168
1r	.
=169	=169
1r	.
=170||	=170||
!!LO:TX:b:Z=30:t=Tempo I
*M12/8	*M12/8
!LO:TX:Z=5:t=pizz.	!
8f#/	pp
8r	.
8r	.
4r	.
8r	.
2.r	.
=171	=171
!LO:TX:Z=5:t=arco	!
!!LO:TX:Y=20:i:t=dolciss.
4.dd\	.
(4f#/	.
8b\)	.
2.a/	.
=172	=172
4.dd\	.
(4f#/	.
8b\	.
2.a/)	.
=173	=173
(8.a\L	<
8.b\J	(
8.cc#\L	(
8.dd\J)	(
(8.ff#\L	(
8.ee\J	(
8.dd#\L	(
8.ee\J)	[
=174	=174
(4.gg\	>
4.ff#\)	]
2.r	.
=175	=175
(8.a\L	<
8.b\J	(
8.cc#\L	(
8.dd\J)	(
(8.ff#\L	(
8.ee\J	(
8.dd#\L	(
8.ee\J)	[
=176	=176
(4.gg\	>
4.ff#\)	]
2.r	.
=177	=177
4.dd\	pp
(4f#/	.
8b\)	.
2.a/	.
=178	=178
4.dd\	.
(4f#/	.
8b\)	.
2.a/	.
=179	=179
4.dd\	pp
(4f#/	.
8b\)	.
4.a/	.
(4d/	.
8g/)	.
=180	=180
4.f#/	.
4r	.
8r	.
!LO:TX:Z=5:t=pizz.	!
8A/	ppp
8r	.
8r	.
4r	.
8r	.
=181	=181
1.r	.
=182	=182
1r	.
=183	=183
[1.a	p >
=184	=184
!!LO:TX:Z=10:t=ritenuto molto
2.a/_	]
8a/]	pppp
8r	.
8r	.
4r	.
8r;	.
==	==
*-	*-
!!muse2ps: =z21c95
